X:1
T:Vexilla Regis - Palestrina
T:James Gibb editions
T:#
%%score [ 1 { 2 | 3 } 4 5 ]
L:1/8
Q:1/4=130
M:none
K:G
V:1 treble nm="Soprano" snm="S"
V:2 treble-8 nm="Alto" snm="A"
V:3 treble 
V:4 treble-8 nm="Tenor" snm="T"
V:5 bass nm="Bass" snm="B"
V:1
 [xx]30 z2 ||[Q:1/4=200] z16 | z16 | z16 | A8 A8 |[Q:1/4=200] x16 | %6
w: ||||Ful- get||
w: ||||||
[Q:1/4=200][Q:1/4=200][Q:1/4=200] B8 (G8 | E8) G8 | (F4 G6 F2 E4- | E4) D4 (E6 F2 | %10
w: Cru- cis|* my-|ste\- * * *|* ri- um, *|
w: ||||
 G2 F2 G2 A2 B8) | z16 | E8 E8 | G8 E8 | D8 (G8 | A8 c8- | c4 B2 A2 G4 A4- | A4 G8) F4 | %18
w: ||Quo car-|ne car-|nis con\-|||* * di-|
w: ||||||||
 (G4 B8 A2 G2 | A16) | z16 | z16 | z16 | z8 A8 | c8 (A8 | B8) (G8 | E8) (G8- | G4 F2 E2 F4) (G4- | %28
w: tor, * * *|||||Su-|spen- sus|* est|* pa\-|* * * * ti\-|
w: ||||||||||
 G2 F2 E8) ^D4 |[Q:1/4=120] E16 x16 ||[M:4/4][Q:1/4=120][Q:1/4=120][Q:1/4=120] z32 | z30 || %32
w: * * * bu-|lo.|||
w: ||||
 z28 x10 |[Q:1/4=200] z38 ||[Q:1/4=200][Q:1/4=200][Q:1/4=200] z16 | z16 | z8 G8- | G8 (A8 | %38
w: ||||Im\-|* ple\-|
w: ||||||
 c12) B4 | (A8 G8) | (A8 B8) | (G6 FE F4) F4 | E8 z8 | z16 | z16 | z16 | z16 | A8 A8 | B8 (G8 | %49
w: * ta|sunt, *|quae *|con\- * * * ci-|nit|||||Da- vid|fi- de\-|
w: |||||||||||
 E8) G8 | (F4 E8) ^D4 | E4 E8 E4 | G8 E8 | D8 (G8 | A8 c8- | c4 B2 A2 B2 c2 B4- | B2 A2 G8) F4 | %57
w: * li|car\- * mi-|ne, Di- cens|in na-|ti- o\-|||* * * ni-|
w: ||||||||
 G8 z4 D4 | E8 E4 G4- | G4 F4 G8- | G8 z8 | z16 | z16 | z16 | z8 A8 | c8 (A8 | B8) (G8 | E8) G8 | %68
w: bus, in|na- ti- o\-|* ni- bus:|||||Re-|gna- vit|* a|* li-|
w: |||||||||||
 F8 (G6 F2 | E2 D2 E8 ^D4) |[Q:1/4=120] E16 x16 ||[M:4/4][Q:1/4=120][Q:1/4=120][Q:1/4=120] z32 | %72
w: gno De\- *||us.||
w: ||||
 z30 || z28 x10 |[Q:1/4=200] z38 ||[Q:1/4=200][Q:1/4=200][Q:1/4=200] z16 | z8 G8- | G8 (A8 | %78
w: ||||Be\-|* a|
w: ||||||
 c12) B4 | (A8 G8) | (A8 B8) | (G6 FE F4) F4 | (E2 F2 G2 A2 B2 G2 c4- | c2 B2 A2 G2 A6 G2 | %84
w: * ta|cu\- *|ius *|bra\- * * * chi-|is * * * * * *||
w: ||||||
 F8) z8 | z8 A8 | A8 B8 | G8 (E8 | G8) (F8 | G12 F2 E2 | F2 E2 E8) D4 | (E4 G8 F2 E2 | D8) z8 | %93
w: |Sae-|cli pe-|pen- dit|* pre\-||* * * ti-|um, * * *||
w: |||||||||
 z16 | z4 E4 E8 | G8 E8 | D8 (G8 | A8 c8- | c4 B4 A4) A4 | B16 | A8 c8 | (A8 B8) | (G8 E8) | %103
w: |Sta- te-|ra fa-|cta cor\-||* * * po-|ris,|Prae- dam-|que *|tu\- *|
w: ||||||||||
 G8 (F4 G4- | G2 F2 E8) ^D4 | E16 | z16 | B8 c8 | (A8 B8) | (G8 E8) | (G8 F8) | (G12 F2 E2 | %112
w: lit tar\- *|* * * ta-|ri,||prae- dam-|que *|tu\- *|lit *|tar\- * *|
w: |||||||||
 F8) F8 |[Q:1/4=120] E16 x16 ||[M:4/4][Q:1/4=120][Q:1/4=120][Q:1/4=120] z32 | z30 || z28 x10 | %117
w: * ta-|ri.||||
w: |||||
[Q:1/4=200] z38 ||[Q:1/4=200][Q:1/4=200][Q:1/4=200] G16 | (A16 | c16) | (c8 B8) | (A8 G8) | %123
w: |O|Crux||a\- *|ve *|
w: ||||||
 (A8 B8) | G12 F4 | E16- |"^(in exalt.)" E8 A8 | A8 B8 | (G8 E8) | (G8 F8) | (G6 F2 E8- | E8) ^D8 | %132
w: spes *|u- ni-|ca,|* Hoc|pas- si-|o\- *|nis *|tem\- * *|* po-|
w: |||* In|hac tri-|um\- *|phi *|glo\- * *|* ri-|
 E8 z4 E4- | E4 E4 G8 | E8 D8- | D8 (G8 | A8 c8- | c4 B4 A4 G4- | G4 F2 E2 F4) F4 | G8 z8 | A16 | %141
w: re, Au\-|* ge pi-|is iu\-|* sti\-|||* * * * ti-|am,|Re-|
w: a, *|||||||||
 c16 | (A16 | B16) | (G8 E8) | (G8 F8 | G16) | (F4 E4 E8- | E4 ^D2 ^C2 D4) D4 | E16 || z16 | G16 | %152
w: is-|que||do\- *|na *||ve\- * *|* * * * ni-|am.||Te|
w: |||||||||||
 (A16 | c16) | B16 | (A16 | G16 | (A8 B8) | G8 A6 G2 | F4) F4 E8- | E8 z8 | z8 A8 | A8 B8- | %163
w: sum\-||ma|De\-||us *|Tri\- * *|* ni- tas,||Col-|lau- det|
w: |||||||||||
 B8 (G8 | E8) (G8 | F8) (G8- | G4 F4 E8- | E4 D2 C2 D4) D4 | E16 | z16 | z4 E4 E8 | G16 | (E8 D8) | %173
w: * o\-|* mnis|* spi\-||* * * * ri-|tus:||Quos per|Cru-|cis *|
w: ||||||||||
 (G8 A8) | c12 B4 | (A8 G8) | z16 | A8 c8 | A8 B8 | (A8 G8- | G4) E4 (G6 FE | F2 E2 E8) D4 | %182
w: my\- *|ste- ri-|um *||Sal- vas,|re\- *|ge *|* per sae\- * *|* * * cu-|
w: |||||||||
 E8 z8 | z16 | z8 A8- | A8 c8 | (A8 B8) | (A8 G8- | G4 E4 (G6 FE | F2 E2 E8) D4 | %190
w: la,||sal\-|* vas,|re\- *|ge *|* per sae\- * *|* * * cu-|
w: ||||||||
 E8[Q:1/4=198] z4[Q:1/4=195] E4 |[Q:1/4=191] G6[Q:1/4=188] A2[Q:1/4=184] B8- | %192
w: la, per|sae\- * *|
w: ||
[Q:1/4=178] B8)[Q:1/4=172] B8 |[Q:1/4=170] ^G16 |] %194
w: * cu-|la.|
w: ||
V:2
 [xx]30 z2 || z16 | z16 | z16 | z8 d8 | x16 | d8 e8 | c4 A4 B4 c4 | (d6 c2 B4 c4 | A8 B8- | %10
w: ||||Ful-||get Cru-|cis my- ste- ri-|um, * * *||
w: ||||||||||
 B8) z4 B4 | B8 d8 | B8 (A8 | G8) (c8- | c4 B2 A2 B4) B4 | d8 e8 | c4 d4 e4 e4 | d12 d4 | d8 d8 | %19
w: * Quo|car- ne|car- nis|* con\-|* * * * di-|tor, quo|car- ne car- nis|con- di-|tor Su-|
w: |||||||||
 (=f6 ed c4) d4 | e4 (g6 f2 f4) | e4 d4 (e8- | e4 d2 c2 B4 c4 | d16) | e8 z4 d4 | d4 B4 (e6 d2 | %26
w: spen\- * * * sus|est pa\- * *|ti- bu- lo,|||* su-|spen- sus est *|
w: |||||||
 c8 B8) | (d6 c2 B2 A2 G2 A2 | B2 AB c4) B4 B4 | B16 x16 ||[M:4/4] z32 | z30 || z28 x10 | z38 || %34
w: |pa\- * * * * *|* * * * ti- bu-|lo.|||||
w: ||||||||
 z16 | z8 d8- | d8 (e8 | g12) f4 | e16 | e16 | (d6 c2 B2 A2 G4- | G2 E2 e8) ^d4 | e4 g4 f4 e4 | %43
w: |Im\-|* ple\-|* ta|sunt,|quae|con\- * * * *|* * * ci-|nit Da- vid fi-|
w: |||||||||
 f8 d4 (g4- | g2 f2 e8 d2 c2 | B8 A4) G4 | (F8 E8) | z4 e4 d8- | d4 B4 c4 G4 | (A2 B2 c2 A2 B6 c2 | %50
w: de- li car\-||* * mi-|ne, *|Da- vid|* fi- de- li|car\- * * * * *|
w: |||||||
 d4) c4 B4 B4- | B4 B4 c8 | B8 G4 (c4- | c4 B2 A2 B2 A2 G4- | G4) F4 G8 | A8 d4 d4 | %56
w: * mi- ne, Di\-|* cens in|na- ti- o\-||* ni- bus,|di- cens in|
w: ||||||
 (G2 A2 B2 G2 A4) A4 | G4 E4 D8 | z4 G4 A4 d4 | d6 c2 B8 | e8 g8 | (e8 f8) | (d8 B8) | d8 c8 | %64
w: na\- * * * * ti-|o- ni- bus,|in na- ti-|o- ni- bus:|Re- gna-|vit *|a *|li- gno|
w: ||||||||
 B8 A4 e4 | (e6 d2 e4 f4 | g8) e8- | e4 c4 d4 e4 | (d6 c2 B2 A2 B4- | B4 A4 B8) | B16 x16 || %71
w: De- us, re-|gna\- * * *|* vit|* a li- gno|De\- * * * *||us.|
w: |||||||
[M:4/4] z32 | z30 || z28 x10 | z38 || z16 | c16 | (d8 =f8) | e4 e8 d4 | (c2 B2 c2 d2 e2 f2 g4- | %80
w: |||||Be-|a *|ta cu- ius|bra\- * * * * * *|
w: |||||||||
 g4 f4 e4 d2 c2 | d4 e8) ^d4 | e8 e8 | e8 f8 | d8 (B2 c2 d2 B2 | c4 B4) A4 A4 | D4 d4 d8 | e8 c8 | %88
w: |* * chi-|is Sae-|cli pe-|pen- dit * * *|* * pre- ti-|um, sae- cli|pe- pen-|
w: ||||||||
 B4 (e8 d4 | c4 B2 A2 B4 c4- | c4 B4 (A6 B2 | c4 B2 A2 B8) | z4 B4 B8 | d8 B2 c2 d2 B2 | %94
w: dit pre\- *||* ti- um, *||Sta- te-|ra fa\- * * *|
w: ||||||
 c8) A4 (e4- | e4 d2 c2 B4) c4 | A4 d4 e4 (g4- | g2 f2 f2 ed e6 d2 | e2 f2 g8) f4 | g8 d8 | %100
w: * cta cor\-|* * * * po-|ris, fa- cta cor\-||* * * po-|ris, Prae-|
w: ||||||
 =f4 d4 (e2 d2 c2 B2 | c4) d4 (G6 A2 | B6 AB c4 B2 A2 | B6 c2 d4 e4- | e2 f2 g2 e2 f4) f4 | %105
w: dam- que tu\- * * *|* lit tar\- *|||* * * * * ta-|
w: |||||
 e4 (A2 B2 c2 d2 e4- | e4 d2 c2 d2 c2 c2 BA | B4) B4 A8 | z8 z4 B4 | d4 e4 (A2 B2 c2 A2) | %110
w: ri, tar\- * * * *||* ta- ri,|prae-|dam- que tu\- * * *|
w: |||||
 B4 (G2 A2 B2 c2 d2 c2 | B2 A2 G2 F2 E4) (e4- | e4 ^d2 ^c2 !courtesy!^d4) d4 | e16 x16 || %114
w: * lit * * * * *|* * * * * tar\-|* * * * ta-|ri.|
w: ||||
[M:4/4] z32 | z30 || z28 x10 | z38 || d16 | d16 | (e12 d4 | c4 B2 A2 d8- | d8) B8 | (e8 d8) | %124
w: ||||O|Crux|a\- *||* ve|spes *|
w: ||||||||||
 (B4 c4 d6 c2 | B12) B4 |"^(in exalt.)" ^c8 d8 | d8 d8 | e16- | e8 d8 | d12 c4 | B16- | B8 e8 | %133
w: u\- * * *|* ni-|ca, Hoc|pas- si-|o\-|* nis|tem- po-|re,|* Au-|
w: ||* In|hac tri-|um\-|* phi|glo- ri-|a,||
 c8 d8 | G16 | (g8 e8) | (=f16 | e12) e4 | d8 d8- | d8 c8 | d16 | e16 | d16- | d16 | z8 e8- | %145
w: ge pi-|is|iu\- *|sti\-|* ti-|am, re\-|* is-|que|do-|na,||re\-|
w: ||||||||||||
 e8 ^d8 | e16 | c8 c8 | B12 B4 | B16 || d16 | (e8 g8- | g4 f2 e2 f4) f4 | (g2 f2 e2 d2 c8) | d16- | %155
w: * is-|que|do- na|ve- ni-|am.|Te|sum\- *|* * * * ma|De\- * * * *|us|
w: ||||||||||
 d8 (d6 c2 | B2 G2 c8) B4 | A8 z4 d4 | c4 B4 d8 | A8 (A6 B2 | c2 d2 e8) ^d4 | e4 B4 ^c8 | d8 B8 | %163
w: * Tri\- *|* * * ni-|tas, te|sum- ma De-|us Tri\- *|* * * ni-|tas, Col- lau-|det o-|
w: ||||||||
 G4 (g6 f2 e4- | e2 d2 c2 BA G4) G4 | (d8 G8) | z8 z4 A4 | G8 (A6 B2 | c4 B2 A2 B4) B4 | %169
w: mnis spi\- * *|* * * * * * ri-|tus, *|o-|mnis spi\- *|* * * * ri-|
w: ||||||
 c6 BA c2 B2 c2 d2 | e8 z4 A4 | G4 c8 B4 | c8 d4 d4 | e16 | z16 | z4 c8 B4 | d8 d4 e4 | %177
w: tus: * * * * * *|* Quos|per Cru- cis|my- ste- ri-|um||Sal- vas,|re- ge per|
w: ||||||||
 (=f6 ed e4) e4 | (d6 c2 B8) | z4 c8 B4 | c8 G4 B4 | (c2 B2 A2 G2 A8- | (A4 A4 F6 E2 | D4) d8 ^c4 | %184
w: sae\- * * * cu-|la, * *|sal- vas,|re- ge per|sae\- * * * *|* cu- la, *|* sal- vas,|
w: |||||||
 d8 A4 e4 | =f4 f4 e8 | z16 | z4 c8 B4 | c8 G4 B4 | (c2 B2 A2 G2 A4) A4 | A8 z4 G4- | %191
w: re- ge per|sae- cu- la,||sal- vas,|re- ge per|sae\- * * * * cu-|la, per|
w: |||||||
 G4 E2 F2 G2 A2 B2 ^c2 | ^d4 e8) d4 | e16 |] %194
w: * sae\- * * * * *|* * cu-|la.|
w: |||
V:3
 x32 || x16 | x16 | x16 | x16 | x16 | x16 | x16 | x16 | x16 | x16 | x16 | x16 | x16 | x16 | x16 | %16
w: ||||||||||||||||
 x16 | x16 | x16 | x16 | x16 | x16 | x16 | x16 | x16 | x16 | x16 | x16 | x16 | x32 ||[M:4/4] x32 | %31
w: |||||||||||||||
 x30 || x38 | x38 || x16 | x16 | x16 | x16 | x16 | x16 | x16 | x16 | x16 | x16 | x16 | x16 | x16 | %47
w: ||||||||||||||||
 x16 | x16 | x16 | x16 | x16 | x16 | x16 | x16 | x16 | x16 | x16 | x16 | x16 | x16 | x16 | x16 | %63
w: ||||||||||||||||
 x16 | x16 | x16 | x16 | x16 | x16 | x16 | x32 ||[M:4/4] x32 | x30 || x38 | x38 || x16 | x16 | %77
w: ||||||||||||||
 x16 | x16 | x16 | x16 | x16 | x16 | x16 | x16 | x16 | x16 | x16 | x16 | x16 | x16 | x16 | x16 | %93
w: ||||||||||||||||
 x16 | x16 | x16 | x16 | x16 | x16 | x16 | x16 | x16 | x16 | x16 | x16 | x16 | x16 | x16 | x16 | %109
w: ||||||||||||||||
 x16 | x16 | x16 | x16 | x32 ||[M:4/4] x32 | x30 || x38 | x38 || x16 | x16 | x16 | x16 | x16 | %123
w: ||||||||||||||
 x16 | x16 | x16 | x16 | x16 | x16 | x16 | x16 | x16 | x16 | x16 | x16 | x16 | x16 | x16 | x16 | %139
w: ||||||||||||||||
 x16 | x16 | x16 | x16 | x16 | x16 | x16 | x16 | x16 | x16 | x16 || z16 | z16 | D16 | (E16 | G16) | %155
w: |||||||||||||Te|sum\-||
 F16 | (E16 | D16) | (E8 F8) | (D8 E6 D2 | C4) C4 B,8- | B,8 z8 | z8 D8 | D8 E8- | E8 (C8 | %165
w: ma|De\-||us *|Tri\- * *|* ni- tas,||Col-|lau- det|* o\-|
 A,8) C8 | B,8 (C8- | C4 B,4 A,8- | A,4 ^G,2 F,2 G,4) G,4 | A,16 | z16 | z16 | A,8 A,8 | C16 | %174
w: * mnis|* spi\-||* * * * ri-|tus:|||Quos per|Cru-|
 (A,8 G,8) | (C8 D8) | =F12 E4 | (D8 C8) | z8 D8 | =F8 (D8 | E8) (D8 | C12) A,4 | %182
w: cis *|my\- *|ste- ri-|um *|Sal-|vas, re\-|* ge|* per|
 (C6 B,A, B,2 A,2 A,4- | A,4) G,4 A,8- | A,16 | z16 | D16 | =F8 D8 | E8 (D8 | C12) A,4 | C12 C4 | %191
w: sae\- * * * * *|* cu- la,|||sal-|vas, re\-|* ge|* per|sae- cu-|
 B,16- | B,16 | B,16 |] %194
w: la.|||
V:4
"^Vexilla Regis""^G. P. da Palestrina\n(1526-94)" G2 A2 B2 c2 B2 A2 G2 A2 A2 B2 A2 G2 F4 E4 || %1
w: Ve- xil\- * la Re\- * * gis pro\- * * de- unt *|
w: |
 A8 A8 | B8 (G8 | E8) (G8- | G4 F2 E2 F8) | G4 G4 E8 | (A6 GF E8) | (B6 A2 G4) A4 | (F8 E8) | %9
w: Ful- get|Cru- cis|* my\-||ste- ri- um,|my\- * * *|ste\- * * ri-|um, *|
w: ||||||||
 z4 E4 E8 | (G6 A2 B4) A4- | A4 G4 c4 c4 | B4 E4 E8 | G8 E8 | D8 (G8 | A8 c8- | c4 B4 A4) A4 | %17
w: Quo car-|ne * * car\-|* nis con- di-|tor, quo car-|ne car-|nis con\-||* * * di-|
w: ||||||||
 G16 | z8 A8 | c8 (A8 | B8) (G8 | E8) G8- | G4 (F2 E2 F2 G2 A4- | A4 G8) F4 | G4 G4 G4 E4 | %25
w: tor|Su-|spen- sus|* est|* pa\-|* ti\- * * * *|* * bu-|lo, su- spen- sus|
w: ||||||||
 A8 (G6 A2 | B2 c2 d6 c2 B2 A2 | G4 A4) F4 F4 | E16 | G2 A2 B2 c2 B2 A2 G2 A2 A2 B2 A2 G2 F4 E4 || %30
w: est pa\- *||* * ti- bu-|lo.|Quo vul\- * ne- ra\- * * tus in\- * * su- per *|
w: |||||
 A2 A2 B2 G2 F2 E2 G2 F2 G2 E2 D2 D4 E4 x2 | E2 E2 G2 E2 D2 G2 G2 A2 B2 A2 A4 G4 x2 || %32
w: Mu- cro- ne di\- * * ro lan\- * ce\- * ae, *|Ut nos la- va\- * ret cri\- * * mi- ne *|
w: ||
 G2 A2 B2 c2 B2 A2 B2 G2 F2 E2 G2 F2 G2 E2 D2 D4 E4 | G8 (A8 x22 || c12 B2 A2 | B4) A4 (B8- | %36
w: ~Ma- na\- * * * * vit un\- * da et san\- * gui\- * ne. *|Im- ple\-||* ta sunt,|
w: ||||
 B4 A2 G2 d8) | z4 G4 A4 B4 | c12 B4 | A4 (d6 c2 B2 A2 | B8) B6 B2 | E8 A8 | A8 B8 | (G8 E8) | %44
w: |im- ple- ta|sunt, *|* quae * * *|* con- ci-|nit Da-|vid fi-|de\- *|
w: ||||||||
 G8 (F4 E4- | E4 ^D4 E4 G4 | F4 E4 F8 | G8 z4 B4 | c4 A4 (G2 A2 B2 G2 | A6 G2 F4) F4 | %50
w: li car\- *|* mi- ne, Da-|vid fi- de-|li, fi-|de- li car\- * * *|* * * mi-|
w: ||||||
 E2 F2 G2 FG A8 | E8 z8 | z16 | z8 z4 E4- | E4 E4 G8 | E8 D8 | (G8 A8 | c12 B4 | A8 G8) | %59
w: ne, * * * * *|||Di\-|* cens in|na- ti-|o\- *|* ni-|bus: *|
w: |||||||||
 z4 B4 B6 A2 | B4) c4 (d6 cB | A4) (B6 A2 G4) | F4 (B6 A2 A4- | A4 ^G4) A4 A4 | (A6 B2 c2 A2 d4) | %65
w: Re- gna\- *|* vit a * *|* li\- * *|gno De\- * *|* * us, re-|gna\- * * * *|
w: ||||||
 (G6 A2 B4) c4 | B4 A4 (B4 c2 B2 | A2 G2 A4 G8- | G4 F2 E2 F8) | E16 | %70
w: vit * * a|li- gno De\- * *|||us.|
w: |||||
 G2 A2 B2 c2 B2 A2 G2 A2 A2 B2 A2 G2 F4 E4 || A2 A2 B2 G2 F2 E2 G2 F2 G2 E2 D2 D4 E4 x2 | %72
w: Ar- bor * de- co\- * ra et ful\- * * gi- da, *|Or- na- ta Re\- * * gis pur\- * pu\- * ra, *|
w: ||
 E2 E2 G2 E2 D2 G2 G2 A2 B2 A2 A4 G4 x2 || G2 A2 B2 c2 B2 A2 B2 G2 F2 E2 G2 F2 G2 E2 D2 D4 E4 | %74
w: E- le- cta di\- * gno sti\- * * pi- te *|Tam san\- * * * * cta mem\- * * bra tan\- * ge\- * re.\_~ *|
w: ||
 G16 x22 || (A8 c8- | c4) B4 A8- | A8 G8 | (A6 B2 c4 B4 | c4) d4 (G6 A2 | B4 c4 B8 | E8) z8 | %82
w: Be-|a\- *|* ta cu\-|* ius|bra\- * * *|* chi- is *|||
w: ||||||||
 A8 A8 | B8 G8 | E4 (G8 F2 E2 | F4) F4 G8 | z4 E4 A4 A4 | (E2 F2 G2 A2 B8) | (E6 F2 G4) A4- | %89
w: Sae- cli|pe- pen-|dit pre\- * *|* ti- um,|sae- cli pe-|pen\- * * * *|dit * * pre\-|
w: |||||||
 A4 G4 F8 | z4 E4 E8 | G8 E8 | D8 (G8 | A8 c8- | c4 B2 A2 G4 A4 | F4) G4 (E8 | D8 (A6 B2 | %97
w: * ti- um,|Sta- te-|ra fa-|cta cor\-|||* po- ris,|* cor\- *|
w: ||||||||
 c4) G4 d8 | z4 G4 B4 G4 | d8 A8 | z8 z4 E4 | G4 E4 A4 G2 F2 | E2 F2 G2 A2 B4) E4 | c4 c4 B8 | %104
w: * po- ris,|Prae- dam- que|tu- lit,|prae-|dam- que tu\- * *|* * * * * lit|tar- ta- ri,|
w: |||||||
 (c6 B2 A4 G2 F2 | E2 F2 G2 A2 B2 A2 A4- | A4) ^G4 A4 A4 | c4 d4 (G6 A2 | B2 G2 c6 B2 A4) | %109
w: tar\- * * * *||* ta- ri, prae-|dam- que tu\- *||
w: |||||
 (G2 A2 B2 c2 d2 c2 B2 A2 | G2 F2 E4) B4 c4 | B12 B4 | E16 | %113
w: lit, * * * * * * *|* * * tu- lit|tar- ta-|ri.|
w: ||||
 G2 A2 B2 c2 B2 A2 G2 A2 A2 B2 A2 G2 F4 E4 || A2 A2 B2 G2 F2 E2 G2 F2 G2 E2 D2 D4 E4 x2 | %115
w: Sal- ve, * a- ra, * * sal- ve, * * vi- cti- ma,|De pas- si- o\- * * nis glo\- * ri\- * a, *|
w: ||
 E2 E2 G2 E2 D2 G2 G2 A2 B2 A2 A4 G4 x2 || G2 A2 B2 c2 B2 A2 B2 G2 F2 E2 G2 F2 G2 E2 D2 D4 E4 | %117
w: Qua vi- ta mor\- * tem per\- * * tu- lit *|Et mor\- * * * * te vi\- * * tam red\- * di\- * dit. *|
w: ||
 B12 (G4- x22 || G4 F2 E2 F8 | G8) (E8- | E4 F4 G8 | F8) E8- | E8 F4 (B4- | B4 A2 G2 B4 A4- | %124
w: O Crux||* a\-||* ve|* spes u\-||
w: |||||||
 A4 ^G2 F2 G4) G4 |"^(in exalt.)" A8 F8 | F8 G4 (B4- | B4 A2 G2 A8) | B16 | (B12 A4 | %130
w: * * * * ni-|ca, Hoc|pas- si- o\-||nis|tem\- *|
w: |* In|hac tri- um\-||phi|glo\- *|
 G4 F2 E2 F4) F4 | E8 G8 | A8 B8 | (c12 B2 A2 | B2 c2 d2 B2 c8- | c8) A8 | (c12 B4 | A8) A8 | %138
w: * * * * po-|re, Au-|ge pi-|is * *||* iu-|sti\- *|* ti-|
w: * * * * ri-|a, *|||||||
 G8 G8- | G8 F8 | G8 C8 | D16 | z8 B8- | B8 A8 | B16 | G4 (E2 F2 G2 A2 B4) | (A12 G4 | F12) F4 | %148
w: am, Re\-|* is-|que do-|na,|re\-|* is-|que|do- na * * * *|ve\- *|* ni-|
w: ||||||||||
 E16 | B16 || (c8 B8) | (d6 cB A8) | (E6 F2 G6 A2 | B8) G8 | (A6 G2 F4) F4 | G8 z8 | D8 G4 G4 | %157
w: am.|Te|sum\- *|ma * * *|De\- * * *|* us|Tri\- * * ni-|tas,|te sum- ma|
w: |||||||||
 G8 F4 (D2 E2 | F2 G2 A2 B2 c6 B2 | A6 G2 F4) F4 | E8 z4 E4 | F8 G4 (d4- | d2 c2 B6 A2 G4- | %163
w: De- us Tri\- *||* * * ni-|tas, Col-|lau- det o\-||
w: ||||||
 G2 F2 E2 D2 E8) | F8 (E6 F2 | G8 A8 | E4 G4) =F8 | E16 | z8 z4 A4- | A4 G4 c8 | B4 e4 d4 d4 | %171
w: |mnis spi\- *||* * ri-|tus:|quos|* per Cru-|cis my- ste- ri-|
w: ||||||||
 (c2 B2 A2 G2 F2 E2 F4 | E16) | z4 E8 G4 | A4 E4 G8 | D4 D4 A8- | A8 z4 G4- | G4 F4 G8 | %178
w: um, * * * * * *||quos per|Cru- cis my-|ste- ri- um|* Sal\-|* vas re-|
w: |||||||
 D4 =F4 G4 G4 | C4 c4 B4 G4 | (A8 =F8 | E8 z8 | z4 D4 E8 | =F8 F4 E4 | A6 A2 A4 G4- | G4 F4 G8 | %186
w: ge per sae- cu-|la, per sae- cu-|la, *||sal- vas,|re- ge per|sae- cu- la, sal\-|* vas, re-|
w: ||||||||
 D4 =F4 G4 G4 | C4 c4 B4 G4 | A8 =F8) | E4 (C2 D2 E2 F2 G4- | G2 A2 B4 E2 F2 G2 E2 | F4 G4 F4) F4 | %192
w: ge per sae- cu-|la, per sae- cu-|la, *|per sae\- * * * *||* * * cu-|
w: ||||||
 E16 | x16 |] %194
w: la.||
w: ||
V:5
 [xx]30 z2 || z8 D,8 | D,8 E,8 | C,4 A,,4 B,,4 C,4 | D,16 | x16 | z16 | z16 | z16 | z8 z4 E,4 | %10
w: |Ful-|get Cru-|cis my- ste- ri-|um,|||||Quo|
w: ||||||||||
 E,8 G,8 | E,8 D,8 | E,4 E,4 (A,,2 B,,2 C,2 D,2 | E,8 C,8 | G,,8) z4 (G,4- | G,2 F,2 F,4 E,4 C,4) | %16
w: car- ne|car- nis|con- di- tor, * * *||* quo||
w: ||||||
 =F,4 F,4 E,4 C,4 | D,12 D,4 | G,,16 | D,8 (=F,6 E,D, | C,8) D,8 | (G,6 F,2 E,2 D,2 C,4- | %22
w: car- ne car- nis|con- di-|tor|Su- spen\- * *|* sus|est * * * *|
w: ||||||
 C,4 B,,2 A,,2 E,8) | (B,,6 C,2 D,8) | C,8 D,6 D,2 | G,,8 C,8 | C,4 A,,4 E,8 | (B,,6 C,2 D,4 E,4- | %28
w: |pa\- * *|ti- * bu-|lo, su-|spen- sus est|pa\- * * *|
w: ||||||
 E,4 A,,4) B,,4 B,,4 | E,16 x16 ||[M:4/4] z32 | z30 || z28 x10 | z38 || z8 D,8 | (E,8 G,8- | %36
w: * * ti- bu-|lo.|||||Im-|ple\- *|
w: ||||||||
 G,4) F,4 E,8- | E,8 D,8 | (C,6 B,,2 A,,4) G,,4 | (A,,2 B,,2 C,2 D,2 E,2 F,2 G,4- | %40
w: * ta sunt,|* quae|con\- * * ci-|nit * * * * * *|
w: ||||
 G,2 F,E, F,4 G,6 F,2 | E,8 B,,8) | z4 E,4 D,4 C,4 | D,8 B,,4 (E,4- | E,2 D,2 C,8 B,,2 A,,2 | %45
w: ||Da- vid fi-|de- li car\-||
w: |||||
 G,,2 A,,2 B,,2 C,2 D,4) E,4 | B,,8 z4 E,4 | D,4 ^C,4 D,8 | G,,8 z8 | A,,8 E,4 E,4 | %50
w: * * * * * mi-|ne, Da-|vid fi- de-|li,|fi- de- li|
w: |||||
 D,4 A,,4 (B,,8 | E,8) z8 | z4 E,8 E,4 | G,8 E,8 | D,8 (C,6 B,,2 | A,,4) A,,4 G,,8 | z8 z4 D,4 | %57
w: car- mi- ne,||Di- cens|in na-|ti- o\- *|* ni- bus,|di-|
w: |||||||
 E,4 G,4 G,4 F,4 | (E,2 D,2 C,2 B,,2 A,,4) G,,4 | (D,8 G,,8) | z4 E,4 (E,6 F,2 | %61
w: cens in na- ti-|o\- * * * * ni-|bus: *|Re- gna\- *|
w: ||||
 G,2 E,2 A,4) (D,6 E,2 | F,4) (G,6 F,2 E,4) | D,4 G,,4 (A,,8 | E,8 A,,8- | A,,8 z8 | %66
w: * * * vit *|* a * *|li- gno De\-|* us,||
w: |||||
 z4 E,4 (E,6 F,2 | G,2 E,2 A,4) G,4 C,4 | D,8 E,8 | C,8 B,,8) | E,16 x16 ||[M:4/4] z32 | z30 || %73
w: re- gna\- *|* * * vit a|li- gno|De\- *|us.|||
w: |||||||
 z28 x10 | z38 || z16 | z16 | z16 | z16 | z16 | z16 | z16 | z16 | z16 | z16 | z16 | z16 | z16 | %88
w: |||||||||||||||
w: |||||||||||||||
 z16 | z16 | z16 | z16 | z16 | z16 | z16 | z16 | z16 | z16 | z16 | z16 | z16 | z16 | z16 | z16 | %104
w: ||||||||||||||||
w: ||||||||||||||||
 z16 | z16 | z16 | z16 | z16 | z16 | z16 | z16 | z16 | z16 x16 ||[M:4/4] z32 | z30 || z28 x10 | %117
w: |||||||||||||
w: |||||||||||||
 z38 || G,,16 | D,16 | (C,12 B,,4 | A,,8 G,,8) | (D,8 E,8) | (C,8 B,,8) | E,8 D,8 | E,16 | %126
w: |O|Crux|a\- *||ve *|spes *|uu- ni-|ca,|
w: |||||||||
"^(in exalt.)" z8 D,8 | D,8 G,,8 | C,16 | B,,16 | G,,12 A,,4 | B,,16 | z8 C,8 | A,,8 G,,8 | %134
w: Hoc|pas- si-|o-|ne|tem- po-|re,|Au-|ge pi-|
w: In|hac tri-|um-|phi|glo- ri-|a,|||
 (C,2 D,2 E,2 F,2 G,8- | G,8) C,8 | (=F,12 E,2 D,2 | C,8) C,8 | D,16 | E,16 | D,16 | C,8 G,8- | %142
w: is * * * *|* iu-|sti\- * *|* ti-|am,|Re-|is-|que, re\-|
w: ||||||||
 G,8 F,8 | G,16 | (E,6 D,2 C,8) | (B,,16 | E,16) | (A,,16 | B,,12) B,,4 | E,16 || G,16 | E,16 | %152
w: * is-|que|do\- * *|na||ve\-|* ni-|am.|Te|sum-|
w: ||||||||||
 D,16 | C,16 | G,,16 | D,12 D,4 | (E,6 D,2 E,2 F,2 G,4- | G,2 F,E, F,4 G,4) G,,4 | C,4 E,4 D,8 | %159
w: ma|De-|us|Tri- ni-|tas, * * * *|* * * * * te|sum- ma De-|
w: |||||||
 D,8 A,,8- | A,,4 A,,4 B,,8 | z8 A,,8 | D,8 G,,8 | (G,6 F,2 E,6 D,2 | C,8) C,8 | D,4 D,4 (C,6 D,2 | %166
w: us Tri\-|* ni- tas,|Col-|lau- det|o\- * * *|* mnis|spi- ri- tus: *|
w: |||||||
 E,8 A,,8) | z16 | z16 | A,,8 A,,8 | C,8 (A,,2 B,,2 C,2 D,2 | E,6 F,2 G,4) G,,4 | A,,4 A,,4 D,8 | %173
w: |||Quos per|Cru- cis * * *|* * * my-|ste- ri- um.|
w: |||||||
 C,8 A,,4 A,,4 | (A,,2 B,,2 C,2 D,2 E,8 | A,,8) z8 | z4 D,8 ^C,4 | D,8 A,,4 C,4 | D,4 D,4 G,,8 | %179
w: my- ste- ri-|um * * * *||Sal- vas,|re- ge per|sae- cu- la,|
w: ||||||
 z16 | z16 | z16 | A,,8 (D,6 C,2 | B,,4) B,,4 A,,8 | D,12 ^C,4 | D,8 A,,4 C,4 | D,4 D,4 G,,8 | %187
w: |||per sae\- *|* cu- la,|sal- vas,|re- ge per|sae- cu- la,|
w: ||||||||
 z16 | z16 | z16 | A,,8 (C,6 D,2 | E,12) E,4 | (B,,16 | E,16) |] %194
w: |||per sae\- *|* cu-|la.||
w: |||||||

